X:1
T:Marching in His Name
T:Marching in His Name
T:Charles Hutchinson Gabriel
T:Charles Hutchinson Gabriel, 1907
T:Public Domain Courtesy of the Cyber Hymnal™
T:Public Domain Courtesy of the Cyber Hymnal™
C:Charles Hutchinson Gabriel
Z:Public Domain
Z:Courtesy of the Cyber Hymnal™
%%score ( 1 2 ) ( 3 4 )
L:1/8
Q:1/4=105
M:4/4
K:Db
V:1 treble 
V:2 treble 
V:3 bass 
V:4 bass 
V:1
 [DF]>[EG] | [FA]2 [FB]2 [Fc]2 [Fd]2 | [Fd]2 [DF]4 [DF]>[A,E] | [A,D]2 [DF]2 [FB]2 [DF]2 | %4
w: 1.~Like an|ar- my we are|mov- ing Stead- i-|ly, and at com-|
w: 2.~Ma- ny|foes con- cealed a-|bout us, Would in-|vade our ranks to-|
w: 3.~In the|light our ban- ner|gleam- ing, Fills the|heart with love and|
 [CG]6 [CE]>[DF] | [EG]2 [FA]2 [GB]2 [Gc]2 | [Gc]2 [EG]4 [CE]>[DF] | [EG]2 [FA]2 [GB]2 [Gc]2 | %8
w: mand, Thro’ a|strange and hos- tile|coun- try, To a|bet- ter, bright- er|
w: day, And with|sub- tle a- gi-|ta- tion, Seek to|turn us from the|
w: cheer, And the|voice of our Re-|deem- er, Qui- ets|ev- ery doubt and|
 [FA]6 [DF]>[EG] | [FA]2 [FB]2 [Fc]2 [Fd]2 | [Fd]2 [DF]4 D>D | [DB]2 [=DB]2 [EB]2 [EB]2 | %12
w: land; Full e-|quipped, cour- age- ous,|loy- al, With the|Gos- pel firm- ly|
w: way; But our|lead- er, on be-|fore us, All their|sec- ret cun- ning|
w: fear; Shoul- der|pressed to shoul- der|ev- er, With a|tramp, tramp, tramp we|
 e6 [Ec]>[Ec] | [Dd]2 [Dd]2 [Dd]2 [Dd]2 | [Dd]2 [DE]4 [Dc]>[=EB] | [FA]2 [EG]2 [DF]2 [CE]2 | D6 || %17
w: shod, We are|march- ing on to|glo- ry, To the|ci- ty of our|God.|
w: knows, And His|wis- dom is for-|ev- er Proof a-|gainst the chief of|foes.|
w: move, On- ward,|up- ward to the|ci- ty Built for|us thro’ Je- sus’|love.|
"^Refrain" [A,E]>[A,D] | [A,C]2 [GB]2 [GB]2 [GB]2 | [GB]2 [CE]4 [CF][CE] | D2 [FA]2 [DA]2 [EA]2 | %21
w: ||||
w: With a|firm de- term- in-|a- tion, And a|trust that shall not|
w: ||||
 [FA]6 [FB]>[Fc] | [Fd]2 [Fd]2 [Fc]2 [FB]2 | [Gd]2 [Gc]4 [CG]>[CA] | [GB]2 [GB]2 [Gc]2 [Gc]2 | %25
w: ||||
w: wane, For the|King we have en-|list- ed, And are|march- ing in His|
w: ||||
 [FA]4- [FA]>[DF] [A,E]>[A,D] | [A,C]2 [GB]2 [GB]2 [GB]2 | [GB]2 [CE]7/2 [CG]/ [CF]>[CE] | %28
w: |||
w: train; * Our song of|joy is ev- er|ring- ing, While mov- ing|
w: |||
 D2 [FA]2 [DA]2 [EA]2 | [FA]6 [FB]>[Fc] | [=Ed]2 [Ed]2 [Ec]2 [EB]2 | [Fd]2 [Fd]2 A2 [FA]2 | %32
w: ||||
w: up the great high-|way To a|ci- ty bright, e-|ter- nal, In a|
w: ||||
 [GB]2 [=GB]2 [_Gc]2 !fermata![Ge]2 | [Fd]6 |] %34
w: ||
w: land of cloud- less|day.|
w: ||
V:2
 x2 | x8 | x8 | x8 | x8 | x8 | x8 | x8 | x8 | x8 | x6 D>D | x8 | (E2 =G2 _G2) x2 | x8 | x8 | x8 | %16
 D6 || x2 | x8 | x8 | D2 x6 | x8 | x8 | x8 | x8 | x8 | x8 | x8 | D2 x6 | x8 | x8 | x4 A2 x2 | x8 | %33
 x6 |] %34
V:3
 [D,A,]>[D,A,] | [D,D]2 [D,D]2 [D,D]2 [D,A,]2 | [D,A,]2 [D,A,]4 [D,A,]>[D,G,] | %3
 [D,F,]2 [D,A,]2 [D,D]2 [D,A,]2 | [E,A,]6 [A,,A,]>[A,,A,] | [A,,A,]2 [A,,A,]2 [A,,A,]2 [A,,A,]2 | %6
 [A,,A,]2 [A,,C]4 [A,,A,]>[A,,A,] | [A,,A,]2 [A,,A,]2 [A,,A,]2 [A,,A,]2 | [D,A,]6 [D,A,]>[D,A,] | %9
 [D,D]2 [D,D]2 [D,D]2 [D,D]2 | [D,A,]2 [D,A,]4 [F,A,]>[F,A,] | G,2 [F,A,]2 [E,_G,]2 [D,=G,]2 | %12
 ([C,A,]2 [B,,D]2 [A,,C]2) [G,,G,A,]>[G,,G,A,] | [F,A,]2 [D,F,]2 [E,G,]2 [F,A,]2 | %14
 [G,B,]2 [G,B,]4 [G,B,]>[=G,D] | [A,D]2 A,2 [A,,A,]2 [A,,G,]2 | [D,F,]6 || [D,G,]>[D,F,] | %18
 [A,,E,]2 [A,,C]2 [A,,C]2 [A,,C]2 | [A,,C]2 [A,,G,]4 [A,,A,][A,,G,] | %20
 [D,F,]2 [D,D]2 [F,D]2 [A,C]2 | [D,D]6 [D,D]>[D,D] | [D,A,]2 [D,A,]2 [D,A,]2 [D,A,]2 | %23
 [E,A,]2 [E,A,]4 [E,A,]>[E,A,] | [A,,C]2 [A,,C]2 [A,,C]2 [A,,C]2 | %25
 [D,D]4- [D,D]>[D,A,] [D,G,]>[D,F,] | [A,,E,]2 [A,,C]2 [A,,C]2 [A,,C]2 | %27
 [A,,C]2 [A,,G,]7/2 [A,,B,]/ [A,,A,]>[A,,G,] | [D,F,]2 [D,D]2 [F,D]2 [A,C]2 | [D,D]6 [D,D]>[D,A,] | %30
 [=G,,=G,B,]2 [G,,G,B,]2 [G,,G,B,]2 [G,,G,B,]2 | [A,,A,]2 A,2 [F,D]2 [D,D]2 | %32
 [G,D]2 [E,D]2 [A,E]2 !fermata![A,,A,]2 | [D,A,]6 |] %34
V:4
 x2 | x8 | x8 | x8 | x8 | x8 | x8 | x8 | x8 | x8 | x8 | =G,2 x6 | x8 | x8 | x8 | x2 A,2 x4 | x6 || %17
 x2 | x8 | x8 | x8 | x8 | x8 | x8 | x8 | x8 | x8 | x8 | x8 | x8 | x8 | x2 A,2 x4 | x8 | x6 |] %34

